rospo-newyear-light/symbolic/devices/audio-speakers-symbolic.svg

<svg height="16" width="16" xmlns="http://www.w3.org/2000/svg"><path d="m8 1-4 4h-3v6h3l4 4zm2 0v1.5c2.32.74 4 2.93 4 5.5s-1.68 4.76-4 5.5v1.5c3.15-.78 5.5-3.6 5.5-7s-2.35-6.22-5.5-7zm0 4v6c1.06-.58 1.789-1.7 1.789-3s-.719-2.42-1.789-3z" fill="#5c616c"/></svg>

<svg xmlns="http://www.w3.org/2000/svg" width="16" height="16" version="1.1">
 <path style="fill:#5c616c" d="M 8,1 4,5 H 1 V 11 H 4 L 8,15 Z M 10,1 V 2.5 C 12.32,3.24 14,5.43 14,8 14,10.57 12.32,12.76 10,13.5 V 15 C 13.15,14.22 15.5,11.4 15.5,8 15.5,4.6 13.15,1.78 10,1 Z M 10,5 V 11 C 11.06,10.42 11.789,9.3 11.789,8 11.789,6.7 11.07,5.58 10,5 Z"/>
</svg>
